packages/ffe-icons/icons/filled/md/keyboard_off.svg

<svg xmlns="http://www.w3.org/2000/svg" height="24" viewBox="0 -960 960 960" width="24"><path d="m788.309-93.385-678.615-678q-8.923-8.923-8.808-21.192.116-12.269 9.423-21.576 9.308-9.308 21.384-9.308 12.077 0 21.385 9.308l678 678.615q8.922 8.923 9.115 20.884.192 11.961-9.115 21.269-9.308 9.308-21.385 9.308-12.076 0-21.384-9.308ZM642-324.616l-70.769-70.768H360q-14.692 0-25.038 10.153-10.346 10.154-10.346 25.231 0 14.692 10.346 25.038T360-324.616h282ZM172.309-220.001q-30.308 0-51.308-21t-21-51.308v-375.382q0-30.308 21-51.308t51.308-21h54.308l519.997 519.998H172.309ZM240-564.616q14.692 0 25.038-10.346T275.384-600q0-14.692-10.346-25.038T240-635.384q-14.692 0-25.038 10.346T204.616-600q0 14.692 10.346 25.038T240-564.616Zm360 0q14.692 0 25.038-10.346T635.384-600q0-14.692-10.346-25.038T600-635.384q-14.692 0-25.038 10.346T564.616-600q0 14.692 10.346 25.038T600-564.616Zm120 0q14.692 0 25.038-10.346T755.384-600q0-14.692-10.346-25.038T720-635.384q-14.692 0-25.038 10.346T684.616-600q0 14.692 10.346 25.038T720-564.616Zm-480 120q14.692 0 25.038-10.346T275.384-480q0-14.692-10.346-25.038T240-515.384q-14.692 0-25.038 10.346T204.616-480q0 14.692 10.346 25.038T240-444.616Zm120 0q14.692 0 25.038-10.346T395.384-480q0-14.692-10.346-25.038T360-515.384q-14.692 0-25.038 10.346T324.616-480q0 14.692 10.346 25.038T360-444.616Zm360 0q14.692 0 25.038-10.346T755.384-480q0-14.692-10.346-25.038T720-515.384q-14.692 0-25.038 10.346T684.616-480q0 14.692 10.346 25.038T720-444.616Zm139.999-223.075v361.306q0 12.461-6.423 20.692-6.424 8.23-16.27 12.461t-19.884 2.616q-10.038-1.616-18.885-10.462L624.538-455.077q4.616-4.616 7.731-11.154T635.384-480q0-14.692-10.346-25.038T600-515.384q-7.231 0-13.769 3.115t-11.154 7.731l-70.539-70.539q4.616-4.616 7.731-11.154T515.384-600q0-14.692-10.346-25.038T480-635.384q-7.231 0-13.769 2.615t-11.154 7.231l-52.999-52.999q-8.846-8.847-10.154-18.885-1.308-10.038 2.923-19.884t12.462-16.27q8.23-6.423 20.692-6.423h359.69q30.308 0 51.308 21t21 51.308Z"/></svg>

<svg xmlns="http://www.w3.org/2000/svg" height="24" viewBox="0 -960 960 960" width="24"><path d="m788.31-93.39-678.62-678q-8.92-8.92-8.8-21.19.11-12.27 9.42-21.57 9.31-9.31 21.38-9.31 12.08 0 21.39 9.31l678 678.61q8.92 8.93 9.11 20.89.2 11.96-9.11 21.26-9.31 9.31-21.39 9.31-12.07 0-21.38-9.31ZM642-324.62l-70.77-70.76H360q-14.69 0-25.04 10.15-10.34 10.15-10.34 25.23 0 14.69 10.34 25.04 10.35 10.34 25.04 10.34h282ZM172.31-220Q142-220 121-241q-21-21-21-51.31v-375.38Q100-698 121-719q21-21 51.31-21h54.31l519.99 520h-574.3ZM240-564.62q14.69 0 25.04-10.34 10.34-10.35 10.34-25.04t-10.34-25.04q-10.35-10.34-25.04-10.34t-25.04 10.34q-10.34 10.35-10.34 25.04t10.34 25.04q10.35 10.34 25.04 10.34Zm360 0q14.69 0 25.04-10.34 10.34-10.35 10.34-25.04t-10.34-25.04q-10.35-10.34-25.04-10.34t-25.04 10.34q-10.34 10.35-10.34 25.04t10.34 25.04q10.35 10.34 25.04 10.34Zm120 0q14.69 0 25.04-10.34 10.34-10.35 10.34-25.04t-10.34-25.04q-10.35-10.34-25.04-10.34t-25.04 10.34q-10.34 10.35-10.34 25.04t10.34 25.04q10.35 10.34 25.04 10.34Zm-480 120q14.69 0 25.04-10.34 10.34-10.35 10.34-25.04t-10.34-25.04q-10.35-10.34-25.04-10.34t-25.04 10.34q-10.34 10.35-10.34 25.04t10.34 25.04q10.35 10.34 25.04 10.34Zm120 0q14.69 0 25.04-10.34 10.34-10.35 10.34-25.04t-10.34-25.04q-10.35-10.34-25.04-10.34t-25.04 10.34q-10.34 10.35-10.34 25.04t10.34 25.04q10.35 10.34 25.04 10.34Zm360 0q14.69 0 25.04-10.34 10.34-10.35 10.34-25.04t-10.34-25.04q-10.35-10.34-25.04-10.34t-25.04 10.34q-10.34 10.35-10.34 25.04t10.34 25.04q10.35 10.34 25.04 10.34Zm140-223.07v361.3q0 12.47-6.42 20.7-6.43 8.23-16.27 12.46-9.85 4.23-19.89 2.61-10.04-1.61-18.88-10.46l-174-174q4.61-4.61 7.73-11.15 3.11-6.54 3.11-13.77 0-14.69-10.34-25.04-10.35-10.34-25.04-10.34-7.23 0-13.77 3.11-6.54 3.12-11.15 7.73l-70.54-70.54q4.61-4.61 7.73-11.15 3.11-6.54 3.11-13.77 0-14.69-10.34-25.04-10.35-10.34-25.04-10.34-7.23 0-13.77 2.61-6.54 2.62-11.15 7.23l-53-53q-8.85-8.84-10.16-18.88-1.3-10.04 2.93-19.89 4.23-9.84 12.46-16.27Q415.54-740 428-740h359.69Q818-740 839-719q21 21 21 51.31Z"/></svg>
